!!!COM: Fux, Johann Joseph
!!!OMD: Gradus ad Parnassum Exercise
!!!YEC: CC0 1.0 Universal (Public Domain). Mark Gotham and FourScoreAndMore.org waive all rights to this document.
**kern	**kern	**kern	**kern
*part4	*part3	*part2	*part1
*staff4	*staff3	*staff2	*staff1
*I"4	*I"3	*I"2	*I"1
*I'Pno	*I'Pno	*I'Pno	*I'Pno
!!LO:LB:g=z
*clefF4	*clefGv2	*clefG2	*clefG2
*k[]	*k[]	*k[]	*k[]
!!LO:TX:omd:t=
*M4/4	*M4/4	*M4/4	*M4/4
=87	=87	=87	=87
!	!	!	!LO:TX:a:t=Fig. 170; Species&colon; 1; Modal final&colon; f; Cantus firmus&colon; 1
1F	1A	1c	1f
=88	=88	=88	=88
1E	1G	1c	1g
=89	=89	=89	=89
1F	1F	1c	1a
=90	=90	=90	=90
1FF	1A	1c	1f
=91	=91	=91	=91
1BB-X	1F	1B-X	1d
=92	=92	=92	=92
1GG	1G	1B	1e
=93	=93	=93	=93
1D	1F	1A	1f
=94	=94	=94	=94
1AA	1E	1a	1cc
=95	=95	=95	=95
1D	1F	1f	1a
=96	=96	=96	=96
1D	1A	1f	1f
=97	=97	=97	=97
1C	1c	1e	1g
=98	=98	=98	=98
1FF	1A	1f	1f
==	==	==	==
*-	*-	*-	*-
!!!software: music21 v.9.7.1
!!!software: music21 v.9.7.1
!!!software: MuseScore 3.4.2
!!!RDF**kern: > = above
!!!RDF**kern: < = below
